public/images/logos/firebase.svg

<?xml version="1.0" encoding="UTF-8" standalone="no"?>
<svg width="256px" height="351px" viewBox="0 0 256 351" version="1.1" xmlns="http://www.w3.org/2000/svg" xmlns:xlink="http://www.w3.org/1999/xlink" preserveAspectRatio="xMidYMid">
	<title>Firebase Logo</title>
	<defs>
		<path d="M1.25273437,280.731641 L2.85834533,277.600858 L102.211177,89.0833546 L58.0613266,5.6082033 C54.3920011,-1.28304578 45.0741245,0.473674398 43.8699203,8.18789086 L1.25273437,280.731641 Z" id="path-1"></path>
		<filter x="-50%" y="-50%" width="200%" height="200%" filterUnits="objectBoundingBox" id="filter-2">
			<feGaussianBlur stdDeviation="17.5" in="SourceAlpha" result="shadowBlurInner1"></feGaussianBlur>
			<feOffset dx="0" dy="0" in="shadowBlurInner1" result="shadowOffsetInner1"></feOffset>
			<feComposite in="shadowOffsetInner1" in2="SourceAlpha" operator="arithmetic" k2="-1" k3="1" result="shadowInnerInner1"></feComposite>
			<feColorMatrix values="0 0 0 0 0   0 0 0 0 0   0 0 0 0 0  0 0 0 0.06 0" type="matrix" in="shadowInnerInner1"></feColorMatrix>
		</filter>
		<path d="M134.417103,148.974235 L166.455722,116.161738 L134.417104,55.1546874 C131.374828,49.3635911 123.983911,48.7568362 120.973828,54.5646483 L103.26875,88.6738296 L102.739423,90.4175473 L134.417103,148.974235 Z" id="path-3"></path>
		<filter x="-50%" y="-50%" width="200%" height="200%" filterUnits="objectBoundingBox" id="filter-4">
			<feGaussianBlur stdDeviation="3.5" in="SourceAlpha" result="shadowBlurInner1"></feGaussianBlur>
			<feOffset dx="1" dy="-9" in="shadowBlurInner1" result="shadowOffsetInner1"></feOffset>
			<feComposite in="shadowOffsetInner1" in2="SourceAlpha" operator="arithmetic" k2="-1" k3="1" result="shadowInnerInner1"></feComposite>
			<feColorMatrix values="0 0 0 0 0   0 0 0 0 0   0 0 0 0 0  0 0 0 0.09 0" type="matrix" in="shadowInnerInner1"></feColorMatrix>
		</filter>
	</defs>
	<g>
		<path d="M0,282.99762 L2.12250746,280.0256 L102.527363,89.5119284 L102.739423,87.4951323 L58.478806,4.35817711 C54.7706269,-2.60604179 44.3313035,-0.845245771 43.1143483,6.95065473 L0,282.99762 Z" fill="#FFC24A"></path>
		<g>
			<use fill="#FFA712" fill-rule="evenodd" xlink:href="#path-1"></use>
			<use fill="black" fill-opacity="1" filter="url(#filter-2)" xlink:href="#path-1"></use>
		</g>
		<path d="M135.004975,150.380704 L167.960199,116.629461 L134.995423,53.6993114 C131.866109,47.7425353 123.128817,47.7253411 120.032618,53.6993112 L102.421015,87.2880848 L102.421015,90.1487443 L135.004975,150.380704 Z" fill="#F4BD62"></path>
		<g>
			<use fill="#FFA50E" fill-rule="evenodd" xlink:href="#path-3"></use>
			<use fill="black" fill-opacity="1" filter="url(#filter-4)" xlink:href="#path-3"></use>
		</g>
		<polygon fill="#F6820C" points="0 282.99762 0.962097168 282.030396 4.45771144 280.60956 132.935323 152.60956 134.563025 148.178595 102.513123 87.1048584"></polygon>
		<path d="M139.120971,347.551268 L255.395916,282.703666 L222.191698,78.2093373 C221.153051,71.8112478 213.303658,69.2818149 208.724314,73.8694368 L0.000254726368,282.997875 L115.608454,347.545536 C122.914643,351.624979 131.812872,351.62689 139.120971,347.551268" fill="#FDE068"></path>
		<path d="M254.354084,282.159837 L221.401937,79.2179369 C220.371175,72.8684188 213.843792,70.2409553 209.299213,74.79375 L1.28945312,282.600785 L115.627825,346.509458 C122.878548,350.557931 131.709226,350.559827 138.961846,346.515146 L254.354084,282.159837 Z" fill="#FCCA3F"></path>
		<path d="M139.120907,345.64082 C131.812808,349.716442 122.914579,349.714531 115.60839,345.635089 L0.93134768,282.014551 L0.000191044776,282.997875 L115.60839,347.545536 C122.914579,351.624979 131.812808,351.62689 139.120907,347.551268 L255.395853,282.703666 L255.111196,280.951785 L139.120907,345.64082 Z" fill="#EEAB37"></path>
	</g>
</svg>

<svg width="256" height="351" xmlns="http://www.w3.org/2000/svg" xmlns:xlink="http://www.w3.org/1999/xlink" preserveAspectRatio="xMidYMid"><defs><filter x="-50%" y="-50%" width="200%" height="200%" filterUnits="objectBoundingBox" id="prefix__b"><feGaussianBlur stdDeviation="17.5" in="SourceAlpha" result="shadowBlurInner1"/><feOffset in="shadowBlurInner1" result="shadowOffsetInner1"/><feComposite in="shadowOffsetInner1" in2="SourceAlpha" operator="arithmetic" k2="-1" k3="1" result="shadowInnerInner1"/><feColorMatrix values="0 0 0 0 0 0 0 0 0 0 0 0 0 0 0 0 0 0 0.06 0" in="shadowInnerInner1"/></filter><filter x="-50%" y="-50%" width="200%" height="200%" filterUnits="objectBoundingBox" id="prefix__d"><feGaussianBlur stdDeviation="3.5" in="SourceAlpha" result="shadowBlurInner1"/><feOffset dx="1" dy="-9" in="shadowBlurInner1" result="shadowOffsetInner1"/><feComposite in="shadowOffsetInner1" in2="SourceAlpha" operator="arithmetic" k2="-1" k3="1" result="shadowInnerInner1"/><feColorMatrix values="0 0 0 0 0 0 0 0 0 0 0 0 0 0 0 0 0 0 0.09 0" in="shadowInnerInner1"/></filter><path d="M1.253 280.732l1.605-3.131 99.353-188.518-44.15-83.475C54.392-1.283 45.074.474 43.87 8.188L1.253 280.732z" id="prefix__a"/><path d="M134.417 148.974l32.039-32.812-32.039-61.007c-3.042-5.791-10.433-6.398-13.443-.59l-17.705 34.109-.53 1.744 31.678 58.556z" id="prefix__c"/></defs><path d="M0 282.998l2.123-2.972L102.527 89.512l.212-2.017L58.48 4.358C54.77-2.606 44.33-.845 43.114 6.951L0 282.998z" fill="#FFC24A"/><use fill="#FFA712" fill-rule="evenodd" xlink:href="#prefix__a"/><use filter="url(#prefix__b)" xlink:href="#prefix__a"/><path d="M135.005 150.38l32.955-33.75-32.965-62.93c-3.129-5.957-11.866-5.975-14.962 0L102.42 87.287v2.86l32.584 60.233z" fill="#F4BD62"/><use fill="#FFA50E" fill-rule="evenodd" xlink:href="#prefix__c"/><use filter="url(#prefix__d)" xlink:href="#prefix__c"/><path fill="#F6820C" d="M0 282.998l.962-.968 3.496-1.42 128.477-128 1.628-4.431-32.05-61.074z"/><path d="M139.121 347.551l116.275-64.847-33.204-204.495c-1.039-6.398-8.888-8.927-13.468-4.34L0 282.998l115.608 64.548a24.126 24.126 0 0023.513.005" fill="#FDE068"/><path d="M254.354 282.16L221.402 79.218c-1.03-6.35-7.558-8.977-12.103-4.424L1.29 282.6l114.339 63.908a23.943 23.943 0 0023.334.006l115.392-64.355z" fill="#FCCA3F"/><path d="M139.12 345.64a24.126 24.126 0 01-23.512-.005L.931 282.015l-.93.983 115.607 64.548a24.126 24.126 0 0023.513.005l116.275-64.847-.285-1.752-115.99 64.689z" fill="#EEAB37"/></svg>
